X:105
U: ~ = !turn!
%%topmargin 3cm
T:Killarney Boys of Pleasure
B:Traditional Irish Fiddle Tunes. Randy Miller and Jack Perron.
Z:Transcribed by Ralph Palmer
R:Reel
M:C|
L:1/8
K:D
E2 ((3FED) E2 FA | BFAF DEFA| B2 Bd e2 ed | BdAF DEFD |
E2 ((3FED) E2 FA | BFAF DEFA| B2 Bd e2 ed | BdAF FEED ::
Be (3.e.e.e Befe | BdAF DEFA | f2 fe f2 fe | dBAF DEFA |
Be (3.e.e.e Befe | BdAF DEFA | f2 fe defe | dBAF E4 :|]
